img/snow.svg

<svg width="512" height="512" viewBox="0 0 512 512" xmlns="http://www.w3.org/2000/svg"><title>snow</title><path d="M326.042 443.688l-18-10.376c.542-3.124.958-6.31.958-9.624 0-3.312-.416-6.5-1-9.625l18.042-10.396c8.417-4.917 11.29-15.73 6.458-24.104-4.876-8.48-15.667-11.375-24.125-6.5l-18.188 10.5c-4.876-4.146-10.375-7.396-16.5-9.604v-20.897c0-9.77-7.938-17.688-17.688-17.688s-17.667 7.917-17.667 17.688v20.875c-6.126 2.188-11.646 5.48-16.52 9.625l-18.147-10.5c-8.48-4.875-19.292-2-24.167 6.48-4.876 8.416-1.94 19.25 6.5 24.125l17.958 10.375c-.584 3.146-.96 6.334-.96 9.646 0 3.312.376 6.5.96 9.623L186 443.688c-8.46 4.875-11.375 15.75-6.5 24.188 4.875 8.438 15.688 11.312 24.125 6.438l18.167-10.438c4.874 4.125 10.396 7.375 16.542 9.562v20.938c0 9.75 7.916 17.624 17.666 17.624s17.688-7.875 17.688-17.624v-20.938a51.698 51.698 0 0 0 16.52-9.625l18.168 10.5c8.458 4.875 19.25 2 24.125-6.438 4.875-8.437 2-19.25-6.458-24.187zM256 441.375c-9.75 0-17.688-7.938-17.688-17.688S246.25 406.04 256 406.04s17.667 7.897 17.667 17.647c0 9.75-7.917 17.688-17.667 17.688zm218.166-45.125l-12.083-3.208c-.29-3.833-1.208-7.48-2.896-10.98l8.77-8.77c4.126-4.125 4.105-10.792 0-14.854-4.082-4.104-10.707-4.125-14.832 0l-8.79 8.75c-3.46-1.625-7.147-2.562-10.96-2.875l-3.21-12.062c-1.498-5.582-7.25-8.937-12.873-7.437-5.604 1.52-8.875 7.27-7.417 12.875l3.21 11.896a33.922 33.922 0 0 0-4.5 3.667c-1.376 1.418-2.543 2.917-3.627 4.46l-11.896-3.21c-5.604-1.498-11.396 1.877-12.896 7.44-1.5 5.624 1.876 11.353 7.417 12.874l12 3.23c.334 3.77 1.292 7.457 2.98 10.958l-8.813 8.812c-4.083 4.104-4.062 10.73.042 14.812 4.083 4.083 10.708 4.125 14.792.042l8.832-8.833c3.46 1.707 7.168 2.666 11 2.957l3.167 12.02c1.542 5.605 7.25 8.94 12.876 7.44 5.582-1.5 8.956-7.25 7.457-12.918l-3.21-11.896c1.5-1.062 3.043-2.25 4.46-3.625 1.375-1.396 2.542-2.938 3.624-4.48l11.918 3.21c5.604 1.5 11.375-1.854 12.854-7.417 1.5-5.585-1.812-11.334-7.396-12.876zm-35.854 6.688a10.506 10.506 0 0 1-14.875 0c-4.062-4.062-4.104-10.73 0-14.854 4.104-4.083 10.77-4.083 14.875 0 4.063 4.104 4.063 10.79 0 14.854zM118.938 342.5l-11.875 3.188c-1.104-1.5-2.25-3.02-3.646-4.438a33.096 33.096 0 0 0-4.48-3.625l3.19-11.938c1.5-5.604-1.835-11.375-7.376-12.854-5.624-1.5-11.374 1.834-12.874 7.417l-3.25 12.062c-3.812.312-7.458 1.25-10.938 2.896l-8.812-8.77c-4.125-4.126-10.75-4.105-14.834 0a10.5 10.5 0 0 0 0 14.853l8.77 8.772a31.323 31.323 0 0 0-2.895 10.98l-12.042 3.207c-5.625 1.54-8.96 7.25-7.458 12.874 1.52 5.583 7.27 8.875 12.896 7.417l11.875-3.23c1.062 1.605 2.25 3.106 3.688 4.502a27.915 27.915 0 0 0 4.438 3.625l-3.188 11.896c-1.5 5.625 1.834 11.417 7.416 12.917 5.626 1.5 11.334-1.833 12.834-7.438l3.25-12c3.812-.312 7.5-1.27 11-2.938l8.79 8.792c4.085 4.124 10.71 4.04 14.835-.042 4.063-4.062 4.126-10.708 0-14.812L109.44 377a29.47 29.47 0 0 0 2.937-11l12.062-3.19c5.56-1.52 8.895-7.25 7.395-12.874-1.5-5.56-7.25-8.894-12.897-7.436zm-30.376 28.458c-4.104 4.104-10.75 4.104-14.875 0-4.062-4.083-4.062-10.77 0-14.833 4.125-4.083 10.77-4.083 14.875 0 4.104 4.083 4.063 10.75 0 14.833zM512 176c0-61.75-50.25-112-112-112-5.312 0-10.562.375-15.792 1.125C354.334 24.417 307.188 0 256 0s-98.312 24.417-128.208 65.125C122.562 64.375 117.312 64 112 64 50.25 64 0 114.25 0 176s50.25 112 112 112c13.688 0 27.084-2.5 39.71-7.333C180.665 305.917 217.5 320 256 320c38.542 0 75.333-14.083 104.29-39.333A110.825 110.825 0 0 0 400 288c61.75 0 112-50.25 112-112zm-157.938 65.333C330.584 269.625 295.624 288 256 288c-39.625 0-74.584-18.375-98.062-46.667C144.938 250.5 129.125 256 112 256c-44.188 0-80-35.812-80-80s35.812-80 80-80c10.812 0 21.062 2.208 30.438 6.083C163.668 60.667 206.29 32 256 32c49.71 0 92.334 28.667 113.54 70.083C378.94 98.208 389.21 96 400 96c44.188 0 80 35.812 80 80s-35.812 80-80 80c-17.125 0-32.916-5.5-45.938-14.667z" fill="#D1D7BF" fill-rule="evenodd"/></svg>

<?xml version="1.0" encoding="UTF-8" standalone="no"?>
<svg width="512px" height="512px" viewBox="0 0 512 512" version="1.1" xmlns="http://www.w3.org/2000/svg" xmlns:xlink="http://www.w3.org/1999/xlink">
    <!-- Generator: Sketch 41.2 (35397) - http://www.bohemiancoding.com/sketch -->
    <title>snow</title>
    <desc>Created with Sketch.</desc>
    <defs></defs>
    <g id="Page-1" stroke="none" stroke-width="1" fill="none" fill-rule="evenodd">
        <g id="snow" fill="#1D1D1B">
            <path d="M326.042,443.688 L308.042,433.312 C308.584,430.188 309,427.001 309,423.688 C309,420.376 308.584,417.188 308,414.063 L326.042,403.667 C334.459,398.75 337.333,387.938 332.5,379.563 C327.624,371.084 316.833,368.188 308.375,373.063 L290.187,383.563 C285.311,379.417 279.812,376.167 273.687,373.959 L273.687,353.063 C273.687,343.292 265.749,335.375 255.999,335.375 C246.249,335.375 238.333,343.292 238.333,353.063 L238.333,373.938 C232.207,376.126 226.687,379.417 221.812,383.563 L203.666,373.063 C195.187,368.188 184.374,371.063 179.499,379.542 C174.624,387.959 177.561,398.792 185.999,403.668 L203.958,414.043 C203.374,417.189 202.999,420.377 202.999,423.689 C202.999,427.002 203.374,430.189 203.958,433.313 L186,443.688 C177.541,448.563 174.625,459.438 179.5,467.876 C184.375,476.314 195.188,479.188 203.625,474.314 L221.792,463.876 C226.666,468.001 232.188,471.251 238.334,473.438 L238.334,494.376 C238.334,504.125 246.25,512 256,512 C265.75,512 273.688,504.125 273.688,494.376 L273.688,473.438 C279.813,471.25 285.376,468 290.209,463.813 L308.376,474.313 C316.834,479.188 327.625,476.313 332.501,467.875 C337.375,459.438 334.5,448.625 326.042,443.688 Z M256,441.375 C246.25,441.375 238.312,433.437 238.312,423.687 C238.312,413.937 246.25,406.041 256,406.041 C265.75,406.041 273.667,413.937 273.667,423.687 C273.667,433.437 265.75,441.375 256,441.375 Z M474.166,396.25 L462.083,393.042 C461.792,389.209 460.875,385.563 459.187,382.063 L467.958,373.292 C472.083,369.167 472.062,362.5 467.958,358.438 C463.875,354.334 457.25,354.313 453.125,358.438 L444.334,367.188 C440.875,365.563 437.188,364.626 433.375,364.313 L430.166,352.251 C428.667,346.668 422.916,343.313 417.292,344.813 C411.688,346.334 408.417,352.084 409.875,357.688 L413.084,369.584 C411.5,370.668 410,371.876 408.584,373.251 C407.209,374.668 406.042,376.167 404.958,377.71 L393.062,374.501 C387.458,373.002 381.666,376.377 380.166,381.939 C378.667,387.564 382.042,393.293 387.583,394.814 L399.583,398.043 C399.917,401.814 400.875,405.501 402.562,409.002 L393.75,417.814 C389.667,421.918 389.688,428.543 393.792,432.626 C397.875,436.709 404.5,436.751 408.584,432.668 L417.416,423.835 C420.875,425.542 424.584,426.501 428.417,426.792 L431.583,438.813 C433.125,444.417 438.833,447.751 444.459,446.251 C450.042,444.751 453.416,439.002 451.917,433.334 L448.708,421.438 C450.208,420.376 451.75,419.188 453.167,417.813 C454.542,416.417 455.709,414.875 456.791,413.334 L468.708,416.543 C474.312,418.043 480.083,414.689 481.562,409.126 C483.062,403.541 479.75,397.792 474.166,396.25 Z M438.312,402.938 C434.187,407.063 427.541,407.042 423.437,402.938 C419.375,398.876 419.333,392.209 423.437,388.084 C427.541,384.001 434.208,384.001 438.312,388.084 C442.375,392.188 442.375,398.875 438.312,402.938 Z M118.938,342.5 L107.063,345.688 C105.959,344.188 104.813,342.667 103.417,341.25 C102.001,339.875 100.501,338.688 98.938,337.625 L102.126,325.687 C103.626,320.083 100.292,314.312 94.751,312.833 C89.126,311.333 83.376,314.667 81.876,320.25 L78.626,332.312 C74.814,332.624 71.168,333.562 67.688,335.208 L58.876,326.437 C54.751,322.312 48.126,322.333 44.042,326.437 C39.938,330.541 39.938,337.187 44.042,341.291 L52.813,350.062 C51.167,353.562 50.209,357.25 49.917,361.041 L37.875,364.249 C32.25,365.791 28.916,371.499 30.417,377.124 C31.938,382.707 37.688,385.999 43.313,384.541 L55.188,381.311 C56.25,382.915 57.438,384.416 58.876,385.812 C60.251,387.187 61.751,388.416 63.314,389.437 L60.126,401.333 C58.626,406.958 61.96,412.75 67.542,414.25 C73.168,415.75 78.876,412.417 80.376,406.812 L83.626,394.812 C87.438,394.5 91.126,393.541 94.626,391.874 L103.417,400.666 C107.501,404.79 114.126,404.707 118.251,400.624 C122.313,396.562 122.376,389.916 118.251,385.812 L109.439,377 C111.127,373.54 112.127,369.812 112.377,365.999 L124.439,362.811 C130.001,361.29 133.335,355.561 131.835,349.936 C130.334,344.376 124.584,341.042 118.938,342.5 Z M88.562,370.958 C84.458,375.062 77.812,375.062 73.687,370.958 C69.625,366.875 69.625,360.187 73.687,356.125 C77.812,352.042 84.458,352.042 88.562,356.125 C92.666,360.208 92.625,366.875 88.562,370.958 Z M512,176 C512,114.25 461.75,64 400,64 C394.688,64 389.438,64.375 384.208,65.125 C354.334,24.417 307.188,0 256,0 C204.812,0 157.688,24.417 127.792,65.125 C122.562,64.375 117.312,64 112,64 C50.25,64 0,114.25 0,176 C0,237.75 50.25,288 112,288 C125.688,288 139.084,285.5 151.709,280.667 C180.666,305.917 217.5,320 256,320 C294.542,320 331.333,305.917 360.291,280.667 C372.916,285.5 386.312,288 400,288 C461.75,288 512,237.75 512,176 Z M354.062,241.333 C330.584,269.625 295.624,288 256,288 C216.375,288 181.416,269.625 157.938,241.333 C144.938,250.5 129.125,256 112,256 C67.812,256 32,220.188 32,176 C32,131.812 67.812,96 112,96 C122.812,96 133.062,98.208 142.438,102.083 C163.667,60.667 206.291,32 256,32 C305.709,32 348.334,60.667 369.541,102.083 C378.938,98.208 389.209,96 400,96 C444.188,96 480,131.812 480,176 C480,220.188 444.188,256 400,256 C382.875,256 367.084,250.5 354.062,241.333 Z" id="Shape"></path>
        </g>
    </g>
</svg>
